X: 4049
T: The SALAMANCA
R: Reel.
%R: reel
B: James Kerr "Merry Melodies" v.4 p.08 #49
Z: 2016 John Chambers <jc:trillian.mit.edu>
M: C|
L: 1/8
K: D
(udB) |\
AD (3(FED) A2 (3(FED) | D(dcd) f(dcd) |\
BE (3(GFE) BE (3(GFE) | Eeed cdeg |\
fddf gfed | (3(cBA) Bc d2ag |\
fdec dABG | (3(FGF) (3(EFE) D2 |]
(fg) |\
afdf bgec | dcde fdcA |\
Bddc def^g | a2^g2 a2 (3(ABc) |\
defg afdf | bged cdeg |\
fedc edcB | AGFE D2 |]

%%sep 1 1 500
%%sep 1 1 500

